img/services-icons/blob.svg

<svg width="38" height="36" viewBox="0 0 38 36" fill="none" xmlns="http://www.w3.org/2000/svg">
<g clip-path="url(#clip0_3_285)">
<path d="M19.32 5.47996C20.69 6.40996 22.56 6.04996 23.49 4.67996C24.42 3.30996 24.06 1.43996 22.69 0.509963C21.32 -0.420037 19.45 -0.0600369 18.52 1.30996C17.59 2.67996 17.95 4.54996 19.32 5.47996ZM12.29 12.29C12.72 11.66 13.24 11.11 13.83 10.65L11.43 8.64996C12.53 6.63996 11.97 4.07996 10.03 2.76996C7.96998 1.37996 5.16998 1.91996 3.77998 3.96996C2.38998 6.02996 2.92998 8.82996 4.97998 10.22C6.25998 11.09 7.82998 11.21 9.16998 10.67L11.89 12.94C12.01 12.72 12.14 12.5 12.29 12.29ZM15.16 23.2L13.72 28.59C12.89 28.78 12.12 29.27 11.6 30.03C10.52 31.63 10.94 33.81 12.54 34.89C14.14 35.97 16.32 35.55 17.4 33.95C18.44 32.42 18.09 30.37 16.65 29.25L18.06 23.96C17.05 23.9 16.06 23.65 15.16 23.2ZM27.1 14.42L23.67 14.65C23.29 13.59 22.6 12.62 21.59 11.94C20.65 11.3 19.57 10.99 18.51 10.99C16.75 10.99 15.01 11.84 13.95 13.41C12.25 15.93 12.91 19.34 15.42 21.05C16.36 21.69 17.44 22 18.5 22C20.26 22 22 21.15 23.06 19.58C23.47 18.97 23.74 18.32 23.88 17.64L27.3 17.41C27 16.45 26.93 15.42 27.1 14.42Z" fill="#0158F3"/>
<path d="M7.02022 17.77C4.96022 16.38 2.16022 16.92 0.770216 18.97C-0.619784 21.03 -0.079784 23.83 1.97022 25.22C4.03022 26.61 6.83022 26.07 8.22022 24.02C9.61022 21.96 9.07022 19.16 7.02022 17.77ZM36.0202 11.77C35.2502 11.25 34.3702 11 33.5002 11C32.0602 11 30.6402 11.69 29.7702 12.98C28.3802 15.04 28.9202 17.84 30.9702 19.23C31.7402 19.75 32.6202 20 33.4902 20C34.9302 20 36.3502 19.31 37.2202 18.02C38.6102 15.96 38.0702 13.16 36.0202 11.77Z" fill="#0158F3"/>
</g>
<defs>
<clipPath id="clip0_3_285">
<rect width="38" height="35.5" fill="white"/>
</clipPath>
</defs>
</svg>

<svg width="38" height="36" fill="none" xmlns="http://www.w3.org/2000/svg"><g clip-path="url(#clip0_3_285)" fill="#0158F3"><path d="M19.32 5.48c1.37.93 3.24.57 4.17-.8.93-1.37.57-3.24-.8-4.17a3.005 3.005 0 00-4.17.8c-.93 1.37-.57 3.24.8 4.17zm-7.03 6.81c.43-.63.95-1.18 1.54-1.64l-2.4-2c1.1-2.01.54-4.57-1.4-5.88a4.51 4.51 0 00-6.25 1.2 4.51 4.51 0 001.2 6.25c1.28.87 2.85.99 4.19.45l2.72 2.27c.12-.22.25-.44.4-.65zm2.87 10.91l-1.44 5.39c-.83.19-1.6.68-2.12 1.44-1.08 1.6-.66 3.78.94 4.86 1.6 1.08 3.78.66 4.86-.94 1.04-1.53.69-3.58-.75-4.7l1.41-5.29c-1.01-.06-2-.31-2.9-.76zm11.94-8.78l-3.43.23c-.38-1.06-1.07-2.03-2.08-2.71-.94-.64-2.02-.95-3.08-.95a5.5 5.5 0 00-4.56 2.42 5.51 5.51 0 001.47 7.64c.94.64 2.02.95 3.08.95a5.5 5.5 0 004.56-2.42c.41-.61.68-1.26.82-1.94l3.42-.23c-.3-.96-.37-1.99-.2-2.99zM7.02 17.77a4.51 4.51 0 00-6.25 1.2 4.51 4.51 0 001.2 6.25 4.51 4.51 0 006.25-1.2 4.51 4.51 0 00-1.2-6.25zm29-6c-.77-.52-1.65-.77-2.52-.77-1.44 0-2.86.69-3.73 1.98a4.51 4.51 0 001.2 6.25c.77.52 1.65.77 2.52.77 1.44 0 2.86-.69 3.73-1.98a4.51 4.51 0 00-1.2-6.25z"/></g><defs><clipPath id="clip0_3_285"><path fill="#fff" d="M0 0h38v35.5H0z"/></clipPath></defs></svg>
